icons/op-add-attachment-24.svg

<svg width="24" height="24" viewBox="0 0 24 24" fill="none" xmlns="http://www.w3.org/2000/svg">
<path d="M7.11125 20C6.4853 20 5.85935 19.7017 5.296 19.0718L5.20211 19.0055C4.60746 18.3756 2.8235 15.7898 5.20211 13.1378C6.37456 11.7978 8.00326 10.1035 9.72839 8.30885L9.80283 8.2314L12.6822 5.1815C14.4348 3.32504 15.718 3.75601 17.7211 5.77822C20.0684 8.13195 20.5065 10.4857 19.4737 11.7123C19.1878 12.0644 18.7324 12.5856 18.1904 13.1903L17.1364 12.1364C17.6647 11.549 18.1057 11.0478 18.3783 10.7177C18.6913 10.3199 18.7226 8.92757 16.7196 6.90536C16.5391 6.71937 16.3784 6.53821 16.23 6.37091C15.4261 5.46475 14.9832 4.96538 13.715 6.30864C12.7448 7.33632 11.7746 8.36401 10.8356 9.32539C9.08299 11.1487 7.45552 12.8726 6.26622 14.1986C4.88913 15.7567 5.57768 17.2153 6.23492 17.8784L6.32882 17.9778C6.86087 18.5414 7.29904 18.7071 8.08147 17.8784C8.16562 17.7892 8.2867 17.6659 8.43586 17.5139C8.67504 17.2702 8.98639 16.953 9.33337 16.5855C10.9295 14.9611 13.8715 11.9112 14.4661 11.1155C14.6539 10.8835 14.9356 10.2536 14.6539 10.0216C14.3097 9.69005 13.6211 10.3531 13.4333 10.5851C11.5169 12.7073 9.06173 15.229 8.69202 15.6087L8.64482 15.6572C8.36315 15.9556 7.89369 15.9556 7.61201 15.6572C7.33033 15.3257 7.33033 14.8616 7.61201 14.5633L7.65946 14.5144C8.02996 14.1339 10.4823 11.6152 12.3692 9.52429C13.715 8.03249 14.9356 8.19825 15.6242 8.86127C16.5005 9.6569 16.2814 11.215 15.6242 12.1101C15.1 12.7764 13.3905 14.5586 11.4884 16.5417C11.1192 16.9267 10.7427 17.3192 10.3662 17.7126C9.77153 18.2762 9.33337 18.7403 9.11429 18.9723C8.45704 19.6685 7.79979 20 7.11125 20Z" fill="black"/>
<path d="M16.75 14H15.25V16.25H13V17.75H15.25V20H16.75V17.75H19V16.25H16.75V14Z" fill="black"/>
</svg>

<svg xmlns="http://www.w3.org/2000/svg" width="24" height="24" viewBox="0 0 24 24"><path d="M7.111 20c-.626 0-1.252-.298-1.815-.928l-.094-.066c-.595-.63-2.378-3.216 0-5.868 1.173-1.34 2.801-3.034 4.526-4.829l.075-.078 2.879-3.05c1.753-1.856 3.036-1.425 5.039.597 2.347 2.354 2.785 4.708 1.753 5.934-.286.352-.742.874-1.284 1.478l-1.054-1.054c.529-.587.97-1.088 1.242-1.418.313-.398.345-1.79-1.658-3.813a15.247 15.247 0 0 1-.49-.534c-.804-.906-1.247-1.406-2.515-.062-.97 1.027-1.94 2.055-2.879 3.016-1.753 1.824-3.38 3.548-4.57 4.874-1.377 1.558-.688 3.016-.031 3.679l.094.1c.532.563.97.729 1.752-.1.085-.089.206-.212.355-.364.239-.244.55-.561.897-.929 1.597-1.624 4.538-4.674 5.133-5.469.188-.233.47-.862.188-1.094-.344-.332-1.033.331-1.221.563-1.916 2.122-4.371 4.644-4.741 5.024l-.047.048a.707.707 0 0 1-1.033 0c-.282-.331-.282-.795 0-1.094l.047-.049c.371-.38 2.823-2.899 4.71-4.99 1.346-1.492 2.567-1.326 3.255-.663.876.796.657 2.354 0 3.249-.524.666-2.234 2.449-4.136 4.432l-1.122 1.171a30.9 30.9 0 0 0-1.252 1.259C8.457 19.669 7.8 20 7.111 20Z"/><path d="M16.75 14h-1.5v2.25H13v1.5h2.25V20h1.5v-2.25H19v-1.5h-2.25V14Z"/></svg>
